public/assets/img/arrow-down-op.svg

<svg width="20" height="20" viewBox="0 0 20 20" fill="none" xmlns="http://www.w3.org/2000/svg">
<path d="M9.99658 16.5859C10.2358 16.5859 10.4819 16.4902 10.646 16.3125L15.1235 11.835C15.3081 11.6504 15.397 11.4316 15.397 11.2061C15.397 10.707 15.0415 10.3516 14.563 10.3516C14.3032 10.3516 14.0913 10.4609 13.9341 10.625L12.3755 12.1699L10.8169 13.9404L10.8716 12.457V4.45215C10.8716 3.91211 10.5161 3.5498 9.99658 3.5498C9.47705 3.5498 9.12158 3.91211 9.12158 4.45215V12.457L9.18311 13.9404L7.61768 12.1699L6.06592 10.625C5.90186 10.4609 5.69678 10.3516 5.43701 10.3516C4.9585 10.3516 4.60303 10.707 4.60303 11.2061C4.60303 11.4316 4.69189 11.6504 4.87646 11.835L9.34717 16.3125C9.51807 16.4902 9.75732 16.5859 9.99658 16.5859Z" fill="#E0E0FF" fill-opacity="0.4"/>
</svg>

<svg width="20" height="20" fill="none" xmlns="http://www.w3.org/2000/svg"><path d="M9.997 16.586c.239 0 .485-.096.649-.273l4.477-4.478a.878.878 0 0 0 .274-.629c0-.499-.356-.854-.834-.854-.26 0-.472.109-.629.273l-1.558 1.545-1.56 1.77.056-1.483V4.452c0-.54-.356-.902-.875-.902-.52 0-.875.362-.875.902v8.005l.061 1.483-1.565-1.77-1.552-1.545a.866.866 0 0 0-.629-.273c-.479 0-.834.355-.834.854 0 .226.089.444.273.629l4.471 4.477c.171.178.41.274.65.274Z" fill="#E0E0FF" fill-opacity=".4"/></svg>
